src/assets/logos/clip.svg

<svg fill="none" height="22" viewBox="0 0 22 22" width="22" xmlns="http://www.w3.org/2000/svg"><path d="m5.43248 5.60255c1.20915-1.20916 3.17491-1.20916 4.38406 0l2.82846 2.82842 1.3435-1.3435-2.8285-2.82843c-1.95157-1.95161-5.11941-1.95161-7.07102 0-1.95162 1.95162-1.95162 5.11946 0 7.07106l2.82842 2.8284 1.34351-1.3435-2.82843-2.82839c-1.20915-1.20915-1.20915-3.17491 0-4.38406zm2.19203 3.60624 5.65689 5.65681 1.4142-1.4142-5.65687-5.65682zm10.60659 2.12131-2.8284-2.82841-1.3435 1.3435 2.8284 2.82841c1.2092 1.2092 1.2092 3.1749 0 4.3841-1.2091 1.2091-3.1749 1.2091-4.3841 0l-2.82838-2.8284-1.3435 1.3435 2.82838 2.8284c1.9517 1.9516 5.1195 1.9516 7.0711 0s1.9516-5.1195 0-7.0711z" fill="#81feb7"/></svg>

<svg width="22" height="22" viewBox="0 0 22 22" fill="none" xmlns="http://www.w3.org/2000/svg">
<path d="M5.43248 5.60255C6.64163 4.39339 8.60739 4.39339 9.81654 5.60255L12.645 8.43097L13.9885 7.08747L11.16 4.25904C9.20843 2.30743 6.04059 2.30743 4.08898 4.25904C2.13736 6.21066 2.13736 9.3785 4.08898 11.3301L6.9174 14.1585L8.26091 12.815L5.43248 9.98661C4.22333 8.77746 4.22333 6.8117 5.43248 5.60255ZM7.62451 9.20879L13.2814 14.8656L14.6956 13.4514L9.03873 7.79458L7.62451 9.20879ZM18.2311 11.3301L15.4027 8.50169L14.0592 9.84519L16.8876 12.6736C18.0968 13.8828 18.0968 15.8485 16.8876 17.0577C15.6785 18.2668 13.7127 18.2668 12.5035 17.0577L9.67512 14.2293L8.33162 15.5728L11.16 18.4012C13.1117 20.3528 16.2795 20.3528 18.2311 18.4012C20.1827 16.4496 20.1827 13.2817 18.2311 11.3301Z" fill="#4BCF93"/>
</svg>
